X:1
T:Title
%%score { ( 1 3 ) | ( 2 4 ) }
L:1/8
M:9/8
K:Eb
V:1 treble nm="Grand Piano"
V:3 treble 
V:2 bass 
V:4 bass 
V:1
 z3 z3[Q:1/4=113] E2 G | [GB]3 [Ac]3 [GB]2 [_G=A] | [GB]3 [B,EG]3 [B,E]2 [CEF] | %3
 [B,EG]3- [B,EG]2 E F2 F |[M:3/4] E6 |[M:3/8] E2 G |[M:9/8] [GB]3 [_Gc]3 [=GB]2 [_G=A] | %7
 [GB]3 G3 G2 G | F3 e3 d2 c |[M:3/4] [DB]6 |[M:12/8] z3 e6- e2 z | z3 B6- B2 z | z3 d3 c3 c3 | %13
 A3 G6 z3 | .[B,GB]2 [Gd] e2- [ce-] [Be-]2 [Ae-] [Ge]2 c | z3 =d3 c6 | c2 c B2 e e2 A G3 | %17
[M:9/8] z3 E6- | E3 z3 z3 |] %19
V:2
 z3 z3 [E,G,]2 [E,B,E] | [E,E]3 [E,E]3 [E,E]2 [E,E] | [E,E]3 E,3 G,,2 A,, | %3
 B,,3- B,,2 [B,,G,B,] [B,,A,B,]2 [B,,A,B,] |[M:3/4] [E,G,B,]6 |[M:3/8] [E,G,]2 [E,B,E] | %6
[M:9/8] [E,B,]3 [E,=A,]3 [E,B,]2 [E,E] | [E,E]3 [E,B,E]3 [E,B,E]2 [E,B,E] | %8
 [F,B,D]3 [F,CF]3 [F,B,F]2 [F,=A,E] |[M:3/4] [B,,B,]3 B,3 | %10
[M:12/8] B,2 B, [E,B,]2 [E,E] [E,D]2 [E,C] [E,B,]2 [B,E] | %11
 [A,B,D]2 [A,B,D] [G,B,E]3 [F,D]3 [E,E]2 [E,E] | [E,E]2 [E,B,] [F,B,F]2 [F,B,] F,2 F, B,,2 B,, | %13
 D,2 [D,B,] [E,B,E]2 [E,B,] [E,B,]2 [E,B,] [E,B,]3 | %14
 z[K:treble] c[K:bass][E,B,] [E,B,]2 [E,E] [E,D]2 [E,C] [E,B,]2 [A,E] | %15
 [G,B,E]2 [G,B,E] [A,E]2 A, [A,E]2 A, A,3 | %16
 [A,E]2 [A,E] [G,B,E]2 [G,B,E] [G,B,E]2 [A,CF][K:bass] [B,E]3 | %17
[M:9/8] [B,,A,B,]3 [G,B,]2 G, A,2 A, | G,3 z3 z3 |] %19
V:3
 x9 | x9 | x9 | x9 |[M:3/4] x6 |[M:3/8] x3 |[M:9/8] x9 | x9 | x9 |[M:3/4] x6 | %10
[M:12/8] [AB]2 [AB] G2 c B2 A G2 G | F2 F z3 A3 G2 [GB] | [GB]2 [Gc] z2 F [DA]2 [DA] [DA]2 [DA] | %13
 [B,F]2 F z2 E E2 E E3 | z3 .G3 z6 | B2 _d z2 E z2 E E3 | x12 |[M:9/8] F3 z2 B, C2 C | B,3 z3 z3 |] %19
V:4
 x9 | x9 | x9 | x9 |[M:3/4] x6 |[M:3/8] x3 |[M:9/8] x9 | x9 | x9 |[M:3/4] x6 |[M:12/8] x12 | x12 | %12
 x12 | x12 | .E,3[K:treble][K:bass] z3 z6 | x12 | x9[K:bass] x3 |[M:9/8] z3 E,6- | E,3 z3 z3 |] %19

